X: 73
T: Morpeth Rant
C: English
M: C|
L: 1/8
B: NEFR #73
Z: Mary Lou Knack?
N: Morpeth is a town in Northumberland, England
N: Pickups moved to start of phrase.
R: reel
K: D
   A2 \
| "D"d2 AG FD FA | "G"BG Bd "A"cA ce | "D"f2 fd "G"gf ed | "A"c2 e2 e2 (3ABc |
| "D"d2 AG FD FA | "G"BG Bd "A"cA ce | "D"f2 fd "G"gf ed | "A"A2 d2 "D"d2 :|
|: A2 \
| "D"df af df af | "G"gf ef g2 ef | "A"gf ed cd eg | "D"fe fg f2 fe |
| "D"df af df af | "G"gf ef g2 ef | "A"gf ed ca ag | "D"f2 d2 d2 :|
